X: 36
T: No_42_The_Sun_and_the_Yellow_Corn.krn
N: Derived from No_42_The_Sun_and_the_Yellow_Corn.krn
%%abc-version 2.0
%%abcx-abcm2ps-target-version 5.9.1 (29 Sep 2008)
%%abc-creator hum2abc beta
%%abcx-conversion-date 2019/03/15 08:25:35
%%humdrum-veritas 2005599215
%%humdrum-veritas-data 3664785153
%%linebreak <none>
%%barnumbers 0
L: 1/8
M: 3/4
K: B clef=bass
[K:clef=bass][M:3/4]B,2B,2B,3/G,/ | 
B,2B,2B, z | 
[M:2/4]B,2B,2 | 
G,2B,/ z/ z | 
B,A, B,/G,3/ | 
F,2G,/ z/ z | 
B,A, B,/G,3/ | 
F,2D,2 | 
D,F,/D,/B,,2 | 
D,F,/D,/B,,2 | 
[M:3/4]D,F,/D,/B,,2D,/B,,/ z | 
[M:2/4]B,2G,/F,/G, | 
G,F, D,F,/ z/ | 
[M:3/4]G,/F,/D,/D,/ B,,B,, B,,B,, | 
[M:2/4]D,3/B,,/ F,3/D,/ | 
[M:3/4]F,/D,/B,,- B,,B,,- B,, z | 
[M:2/4]D,/B,,3/B,,2 | 
D,/B,,3/B,,2 | 
z B,,B,,2 | 
B,2B,2 | 
G,2B,/ z/ z | 
B,A, B,/G,3/ | 
F,2G,/ z/ z | 
B,A, B,/G,3/ | 
F,2D,2 | 
D,F,/D,/B,,2 | 
D,F,/D,/B,,2 | 
[M:3/4]B,,F,/D,/B,,2D,/B,,/ z | 
[M:2/4]B,2G,/F,/G, | 
G,F, D,F,/ z/ | 
[M:3/4]G,/F,/D,/D,/ B,,B,, D,D,/B,,/ | 
[M:2/4]D,3/B,,/ F,3/D,/ | 
[M:3/4]F,/D,/B,, B,,B,, B,, z | 
[M:2/4]D,/B,,3/B,,2 | 
D,/B,,3/B,,2 | 
z B,,B,,2 | 
B,2G,/F,/G, | 
G,F, D,F,/ z/ | 
G,/F,/D,/B,,/ B,,D, | 
B,,2B,,D, | 
B,,2D, z | 
B,,2B,,D, | 
B,,2F,3/D,/ | 
F,D,z2 | 
D,B,, D,F, | 
B,,B,,- B,, z | 
D,/B,,3/B,,2 | 
D,/B,,3/B,,2 | 
z B,,B,,2 | 
B,2B,2 | 
G,2B,/ z/ z | 
B,A, B,/G,3/ | 
F,2G,/ z/ z | 
B,A, B,/G,3/ | 
F,2D,B,, | 
D,F,/D,/B,,2 | 
D,F,/D,/B,,2 | 
[M:3/4]D,F,/D,/B,,2D,/B,,/ z | 
[M:2/4]B,2G,/F,/G, | 
G,F, D,F,/ z/ | 
[M:3/4]G,/F,/D,/D,/ B,,B,, D,D,/B,,/ | 
[M:2/4]F,3/D,/ F,3/D,/ | 
[M:3/4]F,/D,/D,/C,/ B,,B,,- B,, z | 
[M:2/4]D,/B,,/B,,B,,2 | 
D,/B,,/B,,B,,2 | 
z B,,B,,2 | 
D,B,, B,, z | 
[M:3/4]F,F, D,/D,/B,,/B,,/ D,F, | 
[M:2/4]D,/B,,3/ B,, z | 
B,,A,, G,,G,, | 
B,,B,, B,,B,, | 
[M:3/4]B,,F, F,/D,3/ B,, z | 
D,/B,,/B,, D,/B,,/B,,3//B,,// D,F, | 
B,,B,, B,,B,, B,,B,, |]  



